resources/icons/16px/route.svg

<?xml version="1.0" encoding="UTF-8"?>
<svg width="16px" height="16px" viewBox="0 0 16 16" version="1.1" xmlns="http://www.w3.org/2000/svg" xmlns:xlink="http://www.w3.org/1999/xlink">
    <title>Route 16</title>
    <g id="Route-16" stroke="none" stroke-width="1" fill="none" fill-rule="evenodd">
        <path d="M11.6688972,5.06588711 C11.7014876,5.12790689 11.7341788,5.19080005 11.7678826,5.25467211 C11.8806285,5.46833714 12.0035038,5.68928301 12.1349783,5.91595327 C12.361329,6.30619598 12.6025144,6.6955093 12.8437437,7.06717705 L12.6461447,7.06286802 L12.1653882,7.05864802 C10.4211699,7.06214332 9.79739545,7.29184907 9.79739545,7.74716992 C9.79739545,7.79998736 10.0233703,7.93787423 10.8348364,8.18342146 L11.6748204,8.42390344 C13.9008266,9.06341692 14.9999996,9.82945099 14.9999996,11.629585 C14.9999996,13.7527202 13.3934541,14.7515354 10.9731639,14.9955524 C10.321985,15.0612052 9.7066189,15.0710041 8.93038385,15.0462235 L7.97193418,15.0109296 L5.196,15.0106802 L5.46364189,14.6054254 C5.79984781,14.0877733 6.13608425,13.5526068 6.46161124,13.0122865 L8.09811792,13.012784 L8.67006937,13.035262 C9.52691594,13.0707574 10.1449548,13.0689144 10.7725382,13.0056406 C12.2987813,12.8517626 12.9999996,12.4158037 12.9999996,11.629585 C12.9999996,11.0986608 12.5976207,10.7902919 11.3401489,10.4102098 L10.6486842,10.2123643 C9.60882593,9.91913118 8.88532423,9.64976847 8.42734155,9.26601344 C8.80006983,8.3656207 9,7.61154068 9,6.9975 C8.99847904,6.53524935 8.93457531,6.08770447 8.81628654,5.66289742 C9.4614226,5.26816289 10.4144603,5.10093009 11.6688972,5.06588711 Z M4,3 C6.20689655,3 7.99274047,4.7925 8,6.9975 C8,9.21 4,15 4,15 L3.584,14.38014 C2.56,12.8271 0,8.7675 0,6.9975 C0,4.7925 1.79310345,3 4,3 Z M4,5 C2.896,5 2,5.896 2,7 C2,8.104 2.896,9 4,9 C5.104,9 6,8.104 6,7 C6,5.896 5.104,5 4,5 Z M14,1 C15.1034483,1 15.9963702,1.89625 16,2.99875 C16,4.105 14,7 14,7 L13.706671,6.55984834 C13.1510107,5.70663347 12,3.83797414 12,2.99875 C12,1.89625 12.8965517,1 14,1 Z" id="Combined-Shape" fill="#182026" fill-rule="nonzero"></path>
    </g>
</svg>

<svg xmlns="http://www.w3.org/2000/svg" viewBox="0 0 16 16">
  <path d="m11.669 5.066.099.189q.17.32.367.661c.226.39.468.78.709 1.151l-.198-.004-.48-.004c-1.745.003-2.369.233-2.369.688 0 .053.226.19 1.038.436l.84.24C13.9 9.064 15 9.83 15 11.63c0 2.123-1.607 3.122-4.027 3.366-.651.065-1.266.075-2.043.05l-.958-.035H5.196l.268-.406c.336-.517.672-1.052.998-1.593h1.636l.572.023c.857.036 1.475.034 2.103-.03 1.526-.153 2.227-.59 2.227-1.375 0-.531-.402-.84-1.66-1.22l-.691-.198c-1.04-.293-1.764-.562-2.222-.946C8.8 8.366 9 7.612 9 6.997a5 5 0 0 0-.184-1.334c.645-.395 1.598-.562 2.853-.597M4 3a4.007 4.007 0 0 1 4 3.997C8 9.21 4 15 4 15l-.416-.62C2.56 12.827 0 8.767 0 6.997A4 4 0 0 1 4 3m0 2a2 2 0 1 0 .001 4.001A2 2 0 0 0 4 5m10-4c1.103 0 1.996.896 2 1.999C16 4.105 14 7 14 7l-.293-.44C13.15 5.707 12 3.838 12 2.999 12 1.896 12.897 1 14 1"/>
</svg>
